X:17
%%scale .6
%%measurenb 0.
T:Farewell To Connaught/ Rip the Calico/ Trim the Velvet
T:Farewell to Connaught
C:AKA The Haberdashery Set, The Bodice Ripper
M: 4/4
L: 1/8
R: reel
K: Dmix
|:D2 F/E/D FGAB | c2Bd cA G2 | Add^c d2 cd | ed^cd ed^cA |
D2 F/E/D FGAB | c2 Bd cA G2 | ABAG EGAB | cAGE ED D2 :|
|: (fg)gf g2 ed | cded cA A2 |gaag a3g | eaag edcd |
fggf g2 ed | cded dAAG | ABAG EGAB | cAGE ED D2 :|
T:Rip the Calico
M:C
L:1/8
K:G
|:G2GF G2 GA |BA A/A/A BA A/A/A |G3 GF G2 GA |BAGE ED D2 ::
BddB G3 A |BddB cA A2 |BddB G3 A |BAGE ED D2 ::
GE E/E/E c3 A |BddB BA A2 |GE E/E/E c3 A |BAGE EDDE :|
T:Trim the Velvet
M:4/4
L:1/8
K:G
G3 B AGFA |G2 B/c/d cAFA |G3 B AGFD |defd cAFA |
G3 B A3 c |BcdB cAFA |DG G/G/G A[BG][cF]A |defd cAFA |
dgeg dg g2 |dedB cAFA |dgfg dg g2 |defd cAFA |
d3 e dBGB |dedB cAFA |dg g/g/g dg g/g/g |defd cAFA |
g2 gf gaaf |g2 ab c'baf |gabg fgaf |defd cAFA |
g2 gf gaaf |g2 ab c'bag |bg g2 af f2 |defd cAFA ||
|:B/A/G dG BGGA |B/A/G dB cAFA |BGG2 cAA2 |defd cAFA :||"Last"G4|
%%scale .7

